X: 36
T:Parson upon Dorothy or Shepherd's Daughter
T:John Malchair's Third Collection of Tunes
%%VWML:Malchair-3619-p36
F:https://www.vwml.org/record/Malchair/3619/p36
F:www.vwml.org/topics/historic-dance-and-tune-books/Malchair
Z:Eric Conran Jan 2020
M:C|
L:1/8
K:Gdor
D2 | G3G  A  B c A | B3c B2d2 | c2B2 A B c A | B4 B2||
d2 | c2B2 A B c A | B3c B2d2 | c2B2 A B c A |B4 B2||
d2 | c3B  A2c2 | B3A G2B2 | A2G2 G2^F2 | G3||
%%begintext
Above the text, along with the title is written
"From the eition of 1665.
the same as in edition 1652"
Beneath the stave is written
"See an other p.116. different and more simple"
%%endtext
W:
T: Stingo or the Oyle of Barley  
T:John Malchaire's Third Collection of Tunes
F:https://www.vwml.org/record/Malchair/3619/p36
F:www.vwml.org/topics/historic-dance-and-tune-books/Malchair
M:3/2
L:1/4
K:Gdor
G2Gd2B|cA2F2F|G2Gd2B|G3B3||
B2BB2A/B/|c2cc2c|d2dg2f|d3f3|
B2BB2A/B/|c2cc>d_e|d>cBcA2|G3B3:|
W:Above the stave, with the title, is written "1665 
See Cold and raw. Col:2' p.45 1652M:6/4"
W:
T: The beautiful feralmagg. by G.B.
T:John Malchair's Third Collection of Tunes
N:From an internet search, a feralmagg seems to be an archaic term for druid, or witch.
F:https://www.vwml.org/record/Malchair/3619/p36
F:www.vwml.org/topics/historic-dance-and-tune-books/Malchair
M:6/4
L:1/4
K:Dmin
A/G/|F>ED FAA,|D3f3|(e/f/)gf efd|^c3-c2(A/G/)|
F>E D F A A,|D3f3|(e/f/)g f(ea) A|d3-d2||
f/e/|f>ef gab|a3f2 (c/B/)|ABc G>FE|F3-F2 (G/F/)|
E>FG ABc|^B>cd ^cde|(fA)f f>ed|d3-d2||



I:abc-charset utf-8
